MA4T1/111/aimg/rojo.svg

<svg clip-rule="evenodd" fill-rule="evenodd" stroke-linejoin="round" stroke-miterlimit="2" viewBox="0 0 40 180" xmlns="http://www.w3.org/2000/svg"><g fill-rule="nonzero"><path d="m0 30.381c.246-.515.465-.927.641-1.357.144-.349-.05-.527-.391-.543-.193-.009-.395.015-.585.057-.773.173-.833.341-.35 1.017.181.252.395.479.685.826m-3.227-4.3c.43.657.789 1.217 1.159 1.77.233.348.505.371.92.237.592-.192 1.229-.265 1.853-.334.699-.079.951-.313 1.002-1.053.046-.69-.111-.917-.854-1.017-1.307-.177-2.611-.207-4.08.397m4.869-1.024c.155-2.081.367-4.059.434-6.042.079-2.347-.098-4.708.073-7.045.266-3.62.181-7.24.272-10.86.026-1.046-.308-1.441-1.341-1.317-.981.118-1.949.389-2.906.653-.677.187-1.058.689-1.108 1.406-.078 1.111-.188 2.222-.211 3.335-.031 1.553-.003 3.107.015 4.661.055 4.619.117 9.239.178 13.859.004.278.035.557.034.836-.001.444.249.564.624.468 1.266-.325 2.53-.121 3.936.046m.724 2.547c-.648 1.127-1.272 2.269-1.956 3.374-.29.468-.521.485-.821.1-.978-1.251-1.943-2.514-2.855-3.814-.233-.332-.342-.817-.346-1.233-.034-3.386-.03-6.772-.038-10.158 0-.2-.009-.399-.014-.598-.077-3.226-.184-6.451-.218-9.676-.014-1.351.119-2.703.203-4.054.038-.597.338-1.087.849-1.369.553-.306 1.14-.588 1.747-.749.767-.204 1.566-.306 2.357-.397.978-.112 1.608.349 1.798 1.327.09.463.074.95.074 1.427-.001 1.951.126 3.916-.051 5.852-.381 4.177-.079 8.363-.302 12.539-.114 2.145-.221 4.29-.345 6.435-.018.315-.107.626-.163.939.027.019.054.037.081.055" fill="#231f20" transform="matrix(5.55556 0 0 5.55556 21.56637636 5.481659)"/><path d="m0 25.339c-1.406-.167-2.67-.372-3.936-.046-.375.095-.625-.024-.624-.469 0-.278-.03-.557-.034-.835-.061-4.62-.123-9.24-.178-13.859-.019-1.554-.046-3.108-.015-4.662.023-1.112.133-2.223.211-3.335.05-.716.43-1.218 1.108-1.405.957-.264 1.925-.535 2.906-.654 1.033-.123 1.367.272 1.341 1.318-.091 3.619-.006 7.24-.272 10.86-.172 2.337.006 4.698-.073 7.045-.067 1.983-.279 3.961-.434 6.042" fill="#ed1c24" transform="matrix(5.55556 0 0 5.55556 30.68860588 3.91499108)"/><path d="m0-1.537c1.469-.604 2.772-.574 4.08-.397.742.1.899.327.853 1.017-.05.74-.302.974-1.002 1.052-.624.07-1.261.143-1.853.334-.415.135-.687.112-.92-.236-.369-.553-.729-1.113-1.158-1.77" fill="#ffe5a6" transform="matrix(5.55556 0 0 5.55556 3.63858424 158.91511508)"/><path d="m0 1.909c-.29-.347-.504-.574-.685-.826-.483-.676-.423-.844.35-1.017.19-.042.392-.066.585-.057.341.016.535.194.391.543-.176.43-.395.842-.641 1.357" fill="#ed1c24" transform="matrix(5.55556 0 0 5.55556 21.56637636 163.65956332)"/><path d="m0-9.638c-.148 3.264-.665 6.512-1.536 9.661.151-.419.086-.882.019-1.322-.304-2.016-.584-4.038-.915-6.049-.113-.688-.434-1.324.095-1.876.211-.22 2.338-.437 2.337-.414" fill="#fff" transform="matrix(5.55556 0 0 5.55556 33.24971904 62.2594822)"/></g></svg>

<?xml version="1.0" encoding="UTF-8" standalone="no"?>
<!DOCTYPE svg PUBLIC "-//W3C//DTD SVG 1.1//EN" "http://www.w3.org/Graphics/SVG/1.1/DTD/svg11.dtd">
<svg width="100%" height="100%" viewBox="0 0 40 180" version="1.1" xmlns="http://www.w3.org/2000/svg" xmlns:xlink="http://www.w3.org/1999/xlink" xml:space="preserve" xmlns:serif="http://www.serif.com/" style="fill-rule:evenodd;clip-rule:evenodd;stroke-linejoin:round;stroke-miterlimit:2;">
    <g transform="matrix(1,0,0,1,-8268.21,-11635.2)">
        <g transform="matrix(5.55556,0,0,5.55556,7263.77,9566.93)">
            <g transform="matrix(1,0,0,1,184.681,373.275)">
                <path d="M0,30.381C0.246,29.866 0.465,29.454 0.641,29.024C0.785,28.675 0.591,28.497 0.25,28.481C0.057,28.472 -0.145,28.496 -0.335,28.538C-1.108,28.711 -1.168,28.879 -0.685,29.555C-0.504,29.807 -0.29,30.034 0,30.381M-3.227,26.081C-2.797,26.738 -2.438,27.298 -2.068,27.851C-1.835,28.199 -1.563,28.222 -1.148,28.088C-0.556,27.896 0.081,27.823 0.705,27.754C1.404,27.675 1.656,27.441 1.707,26.701C1.753,26.011 1.596,25.784 0.853,25.684C-0.454,25.507 -1.758,25.477 -3.227,26.081M1.642,25.057C1.797,22.976 2.009,20.998 2.076,19.015C2.155,16.668 1.978,14.307 2.149,11.97C2.415,8.35 2.33,4.73 2.421,1.11C2.447,0.064 2.113,-0.331 1.08,-0.207C0.099,-0.089 -0.869,0.182 -1.826,0.446C-2.503,0.633 -2.884,1.135 -2.934,1.852C-3.012,2.963 -3.122,4.074 -3.145,5.187C-3.176,6.74 -3.148,8.294 -3.13,9.848C-3.075,14.467 -3.013,19.087 -2.952,23.707C-2.948,23.985 -2.917,24.264 -2.918,24.543C-2.919,24.987 -2.669,25.107 -2.294,25.011C-1.028,24.686 0.236,24.89 1.642,25.057M2.366,27.604C1.718,28.731 1.094,29.873 0.41,30.978C0.12,31.446 -0.111,31.463 -0.411,31.078C-1.389,29.827 -2.354,28.564 -3.266,27.264C-3.499,26.932 -3.608,26.447 -3.612,26.031C-3.646,22.645 -3.642,19.259 -3.65,15.873C-3.65,15.673 -3.659,15.474 -3.664,15.275C-3.741,12.049 -3.848,8.824 -3.882,5.599C-3.896,4.248 -3.763,2.896 -3.679,1.545C-3.641,0.948 -3.341,0.458 -2.83,0.176C-2.277,-0.13 -1.69,-0.412 -1.083,-0.573C-0.316,-0.777 0.483,-0.879 1.274,-0.97C2.252,-1.082 2.882,-0.621 3.072,0.357C3.162,0.82 3.146,1.307 3.146,1.784C3.145,3.735 3.272,5.7 3.095,7.636C2.714,11.813 3.016,15.999 2.793,20.175C2.679,22.32 2.572,24.465 2.448,26.61C2.43,26.925 2.341,27.236 2.285,27.549C2.312,27.568 2.339,27.586 2.366,27.604" style="fill:rgb(35,31,32);fill-rule:nonzero;"/>
            </g>
        </g>
        <g transform="matrix(5.55556,0,0,5.55556,7263.77,9566.93)">
            <g transform="matrix(1,0,0,1,186.323,372.993)">
                <path d="M0,25.339C-1.406,25.172 -2.67,24.967 -3.936,25.293C-4.311,25.388 -4.561,25.269 -4.56,24.824C-4.56,24.546 -4.59,24.267 -4.594,23.989C-4.655,19.369 -4.717,14.749 -4.772,10.13C-4.791,8.576 -4.818,7.022 -4.787,5.468C-4.764,4.356 -4.654,3.245 -4.576,2.133C-4.526,1.417 -4.146,0.915 -3.468,0.728C-2.511,0.464 -1.543,0.193 -0.562,0.074C0.471,-0.049 0.805,0.346 0.779,1.392C0.688,5.011 0.773,8.632 0.507,12.252C0.335,14.589 0.513,16.95 0.434,19.297C0.367,21.28 0.155,23.258 0,25.339" style="fill:rgb(237,28,36);fill-rule:nonzero;"/>
            </g>
        </g>
        <g transform="matrix(5.55556,0,0,5.55556,7263.77,9566.93)">
            <g transform="matrix(1,0,0,1,181.454,400.893)">
                <path d="M0,-1.537C1.469,-2.141 2.772,-2.111 4.08,-1.934C4.822,-1.834 4.979,-1.607 4.933,-0.917C4.883,-0.177 4.631,0.057 3.931,0.135C3.307,0.205 2.67,0.278 2.078,0.469C1.663,0.604 1.391,0.581 1.158,0.233C0.789,-0.32 0.429,-0.88 0,-1.537" style="fill:rgb(255,229,166);fill-rule:nonzero;"/>
            </g>
        </g>
        <g transform="matrix(5.55556,0,0,5.55556,7263.77,9566.93)">
            <g transform="matrix(1,0,0,1,184.681,401.747)">
                <path d="M0,1.909C-0.29,1.562 -0.504,1.335 -0.685,1.083C-1.168,0.407 -1.108,0.239 -0.335,0.066C-0.145,0.024 0.057,0 0.25,0.009C0.591,0.025 0.785,0.203 0.641,0.552C0.465,0.982 0.246,1.394 0,1.909" style="fill:rgb(237,28,36);fill-rule:nonzero;"/>
            </g>
        </g>
        <g transform="matrix(5.55556,0,0,5.55556,7263.77,9566.93)">
            <g transform="matrix(1,0,0,1,186.784,383.495)">
                <path d="M0,-9.638C-0.148,-6.374 -0.665,-3.126 -1.536,0.023C-1.385,-0.396 -1.45,-0.859 -1.517,-1.299C-1.821,-3.315 -2.101,-5.337 -2.432,-7.348C-2.545,-8.036 -2.866,-8.672 -2.337,-9.224C-2.126,-9.444 0.001,-9.661 0,-9.638" style="fill:white;fill-rule:nonzero;"/>
            </g>
        </g>
    </g>
</svg>
